X:3889
L:1/8
Q:1/4=112
M:4/4
K:Cmin
 g | c<ce>g{g} f>efg | c<ce>g f/e/d/c/ Bd | c<ce>g f>gg>f | e>c{e} dc/=B/ c2 c :| g/a/ | 
 b>ge>g a<f fg/a/ | b>ge>g f/e/d/c/ Bg/a/ | b>ge>g a>ff>g | e>c{e} dc/=B/ c2 c :|

